build/images/team/border-for-brain.svg

<svg viewBox="0 0 688 321" fill="none" xmlns="http://www.w3.org/2000/svg">
<rect x="0.5" y="0.5" width="686" height="319" stroke="white"/>
<mask id="mask0_502_1748" style="mask-type:alpha" maskUnits="userSpaceOnUse" x="4" y="197" width="683" height="123">
<rect x="4.5" y="197.5" width="682" height="122" fill="white" stroke="#3D3D4C"/>
</mask>
<g mask="url(#mask0_502_1748)">
<rect x="210.075" y="275.075" width="583.851" height="45.8505" stroke="white" stroke-width="0.149475"/>
<path d="M3.75781 290H687.001M687.001 305H3.75781" stroke="white"/>
<path d="M68 275H3.5" stroke="white"/>
<path d="M53 261H4" stroke="white"/>
<path d="M20.5 319.5L45.5 275H68L43 319.5" stroke="white"/>
<path d="M-8 290L16.5 246H39L14.5 290" stroke="white"/>
<path d="M3 311L30.5 261H53L28.5 305" stroke="white"/>
<path d="M154 319.5L179 275L201.5 275L176.5 319.5" stroke="white"/>
<path d="M67.5 319.5L92.5 275L115 275L90 319.5" stroke="white"/>
<path d="M593 319.5L618 275L640.5 275L615.5 319.5" stroke="white"/>
<path d="M638 319.5L663 275L685.5 275L660.5 319.5" stroke="white"/>
<path d="M623 305.5L648 261L670.5 261L645.5 305.5" stroke="white"/>
<path d="M654 290.5L679 246L701.5 246L676.5 290.5" stroke="white"/>
<path d="M639.5 275H665" stroke="white"/>
<path d="M662 261H687.5" stroke="white"/>
<path d="M662 275H687.5" stroke="white"/>
<path d="M112 319.5L137 275L159.5 275L134.5 319.5" stroke="white"/>
</g>
<path d="M670.272 24.3266C671.755 22.6353 673.136 20.854 674.407 18.9925C675.205 17.8311 675.909 16.6053 676.511 15.3274C677.003 14.2311 677.291 13.2864 677.295 12.4554C677.303 12.1827 677.267 11.9106 677.188 11.6496C677.105 11.3876 676.961 11.1496 676.769 10.9557C676.576 10.7617 676.341 10.6175 676.082 10.5351C675.825 10.4511 675.557 10.4098 675.288 10.413C674.469 10.413 673.537 10.7092 672.458 11.2089C670.055 12.3319 666.916 14.5624 663.585 17.5396C661.918 16.0354 660.162 14.6347 658.328 13.3453C657.184 12.5346 655.976 11.82 654.717 11.2089C653.638 10.7092 652.704 10.4186 651.886 10.413C651.617 10.4091 651.349 10.4503 651.094 10.5351C650.837 10.6188 650.603 10.7637 650.413 10.9576C650.222 11.1514 650.08 11.3887 649.998 11.6496C649.916 11.9099 649.876 12.182 649.879 12.4554C649.879 13.2864 650.171 14.2311 650.663 15.3274C651.77 17.7656 653.967 20.9493 656.901 24.3308C655.418 26.0225 654.038 27.8038 652.767 29.665C651.969 30.8266 651.265 32.0524 650.663 33.3301C650.171 34.4264 649.883 35.3711 649.879 36.2021C649.875 36.4754 649.916 36.7476 649.998 37.0078C650.081 37.2679 650.223 37.5044 650.414 37.6977C650.604 37.891 650.837 38.0356 651.094 38.1196C651.35 38.2032 651.617 38.2439 651.886 38.2403C652.705 38.2403 653.638 37.9441 654.717 37.4444C657.119 36.3214 660.258 34.0923 663.589 31.1136C665.255 32.6191 667.011 34.0198 668.846 35.3079C669.99 36.1193 671.199 36.8338 672.459 37.4444C673.538 37.9441 674.47 38.2361 675.289 38.2403C675.558 38.2439 675.826 38.2032 676.082 38.1196C676.338 38.0362 676.572 37.8918 676.762 37.6984C676.953 37.5051 677.095 37.2683 677.177 37.0078C677.26 36.7476 677.3 36.4754 677.296 36.2021C677.296 35.3711 677.004 34.4264 676.512 33.3301C675.41 30.8918 673.213 27.7082 670.272 24.3266ZM669.539 14.3799C670.629 13.6096 671.779 12.9312 672.978 12.3515C673.964 11.8869 674.783 11.6637 675.293 11.6693C675.428 11.6658 675.563 11.6848 675.692 11.7254C675.768 11.7479 675.837 11.7894 675.894 11.8462C675.949 11.9034 675.99 11.9738 676.013 12.0511C676.053 12.1819 676.072 12.3185 676.068 12.4554C676.068 12.9719 675.852 13.8044 675.396 14.8052C674.39 17.0371 672.283 20.1113 669.447 23.3932C668.685 22.5509 667.88 21.689 667.036 20.8328C666.193 19.9765 665.35 19.1553 664.515 18.3875C666.111 16.9507 667.79 15.6125 669.544 14.3799L669.539 14.3799ZM666.161 26.9417C665.298 27.8158 664.438 28.6468 663.584 29.4348C662.731 28.6487 661.868 27.8163 661.008 26.9417C660.147 26.0672 659.33 25.1913 658.555 24.3266C659.33 23.4619 660.152 22.586 661.013 21.7129C661.875 20.8398 662.738 20.0046 663.591 19.2185C664.443 20.0046 665.304 20.8384 666.166 21.7129C667.028 22.5874 667.848 23.4633 668.623 24.328C667.85 25.1927 667.028 26.0672 666.166 26.9417L666.161 26.9417ZM653.787 18.2836C653.027 17.1802 652.357 16.0154 651.784 14.801C651.327 13.8001 651.108 12.9677 651.112 12.4512C651.108 12.3143 651.127 12.1777 651.167 12.0469C651.189 11.9696 651.23 11.8992 651.286 11.842C651.343 11.7855 651.412 11.7436 651.488 11.7198C651.617 11.6804 651.752 11.662 651.886 11.6651C652.397 11.6651 653.216 11.8827 654.202 12.3473C656.401 13.3678 659.431 15.5057 662.665 18.3833C661.835 19.1553 660.986 19.9737 660.141 20.83C659.295 21.6862 658.493 22.5425 657.731 23.3903C656.317 21.7696 655 20.0643 653.787 18.2836V18.2836ZM657.634 34.2748C656.546 35.0455 655.398 35.7252 654.202 36.3074C653.216 36.7706 652.404 36.9938 651.886 36.9896C651.751 36.9923 651.617 36.9734 651.488 36.9334C651.412 36.9103 651.343 36.8688 651.286 36.8127C651.231 36.7549 651.19 36.6846 651.167 36.6078C651.127 36.4765 651.108 36.3395 651.112 36.2021C651.112 35.6855 651.327 34.8545 651.784 33.8523C652.79 31.6217 654.896 28.5476 657.732 25.2657C658.493 26.1079 659.299 26.9698 660.142 27.8261C660.984 28.6824 661.834 29.4993 662.664 30.2728C661.067 31.7071 659.387 33.0434 657.634 34.2748V34.2748ZM676.013 36.6078C675.989 36.6846 675.949 36.7549 675.894 36.8127C675.837 36.8688 675.768 36.9103 675.692 36.9334C675.563 36.9734 675.428 36.9923 675.293 36.9896C674.783 36.9896 673.964 36.7706 672.978 36.3074C670.778 35.2869 667.749 33.149 664.515 30.2714C665.345 29.4979 666.194 28.681 667.038 27.8247L666.602 27.3825L667.038 27.8247C667.882 26.9684 668.687 26.1122 669.449 25.2643C670.862 26.8844 672.179 28.5888 673.393 30.3682C674.151 31.4723 674.819 32.6376 675.39 33.8523C675.847 34.8545 676.067 35.6855 676.062 36.2021C676.068 36.3391 676.051 36.4762 676.013 36.6078Z" fill="white"/>
<path d="M669.546 20.8018C670.038 20.8032 670.52 20.6562 670.931 20.3794C671.341 20.1026 671.661 19.7085 671.851 19.2469C672.04 18.7853 672.091 18.2771 671.995 17.7865C671.9 17.2959 671.664 16.845 671.316 16.491C670.968 16.1369 670.524 15.8955 670.041 15.7975C669.558 15.6994 669.057 15.749 668.601 15.9401C668.146 16.1311 667.757 16.455 667.483 16.8706C667.209 17.2863 667.063 17.7751 667.062 18.2751C667.062 18.944 667.324 19.5856 667.789 20.0593C668.255 20.5329 668.886 20.7999 669.546 20.8018V20.8018Z" fill="white"/>
<path d="M657.519 27.9666C657.028 27.9679 656.549 28.1169 656.141 28.3946C655.734 28.6723 655.417 29.0663 655.23 29.5268C655.043 29.9874 654.995 30.4938 655.092 30.9821C655.188 31.4704 655.425 31.9187 655.773 32.2704C656.12 32.622 656.563 32.8613 657.044 32.958C657.526 33.0546 658.025 33.0043 658.478 32.8134C658.931 32.6225 659.319 32.2996 659.591 31.8853C659.864 31.4711 660.009 30.9843 660.009 30.4862C660.007 29.8173 659.744 29.1764 659.277 28.7041C658.811 28.2318 658.178 27.9666 657.519 27.9666V27.9666Z" fill="white"/>
<path d="M669.546 27.9666C669.056 27.9679 668.576 28.1169 668.169 28.3946C667.761 28.6723 667.444 29.0663 667.257 29.5268C667.07 29.9874 667.022 30.4938 667.119 30.9821C667.215 31.4704 667.452 31.9187 667.8 32.2704C668.148 32.622 668.59 32.8613 669.071 32.958C669.553 33.0546 670.052 33.0043 670.505 32.8134C670.958 32.6225 671.346 32.2996 671.618 31.8853C671.891 31.4711 672.036 30.9843 672.036 30.4862C672.035 29.8173 671.771 29.1764 671.305 28.7041C670.838 28.2318 670.206 27.9666 669.546 27.9666V27.9666Z" fill="white"/>
<path d="M657.521 15.7626C657.029 15.7626 656.547 15.9108 656.138 16.1884C655.728 16.466 655.409 16.8606 655.221 17.3223C655.032 17.784 654.983 18.2921 655.079 18.7822C655.175 19.2723 655.412 19.7225 655.761 20.0759C656.109 20.4293 656.552 20.6699 657.035 20.7674C657.518 20.8649 658.019 20.8149 658.474 20.6236C658.929 20.4324 659.318 20.1085 659.592 19.693C659.865 19.2775 660.011 18.789 660.011 18.2893C660.011 17.6191 659.749 16.9765 659.282 16.5026C658.815 16.0288 658.182 15.7626 657.521 15.7626Z" fill="white"/>
<g clip-path="url(#clip0_502_1748)">
<path d="M633.46 12.5394C630.924 10.0027 627.587 8.42382 624.017 8.07181C620.447 7.7198 616.866 8.61644 613.884 10.6089C610.901 12.6014 608.702 15.5665 607.66 18.9989C606.619 22.4313 606.8 26.1187 608.172 29.4326C609.545 32.7466 612.024 35.4821 615.187 37.173C618.35 38.8639 622.002 39.4056 625.52 38.7058C629.038 38.0061 632.205 36.1081 634.48 33.3353C636.756 30.5625 637.999 27.0864 637.999 23.4995C638.001 21.4637 637.602 19.4475 636.823 17.5666C636.044 15.6858 634.901 13.9773 633.46 12.5394V12.5394ZM607.977 23.9852H611.462C611.503 26.4896 612.006 28.9649 612.946 31.2865H610.233C608.84 29.099 608.061 26.5772 607.977 23.9852V23.9852ZM627.674 23.0152C627.661 20.5667 627.436 18.1239 627.004 15.7139H631.002C631.995 18.0221 632.527 20.5026 632.567 23.0152H627.674ZM618.294 23.0152C618.304 20.5661 618.531 18.1228 618.972 15.7139H626.015C626.457 18.1227 626.684 20.5661 626.693 23.0152H618.294ZM626.705 23.9852C626.696 26.4343 626.469 28.8777 626.027 31.2865H618.978C618.536 28.8776 618.309 26.4342 618.3 23.9852H626.705ZM626.806 14.7453C626.648 14.029 626.47 13.3575 626.278 12.7388C625.826 11.2927 625.271 10.1192 624.642 9.30253C626.534 9.89945 628.235 11.2642 629.569 13.1553C629.924 13.6622 630.246 14.1915 630.534 14.7398L626.806 14.7453ZM625.354 13.0264C625.521 13.5596 625.674 14.1348 625.814 14.7453H619.183C619.318 14.1348 619.476 13.5596 619.643 13.0264C620.429 10.5194 621.44 8.96881 622.5 8.96881C623.559 8.96881 624.573 10.5194 625.355 13.0264H625.354ZM618.719 12.7388C618.53 13.3575 618.35 14.029 618.191 14.7453H614.46C614.749 14.1949 615.072 13.6638 615.429 13.1553C616.767 11.2642 618.461 9.89945 620.355 9.30253C619.725 10.1192 619.172 11.2927 618.719 12.7388ZM617.994 15.7139C617.561 18.1238 617.338 20.5667 617.326 23.0152H612.432C612.472 20.5025 613.004 18.0219 613.998 15.7139H617.994ZM611.462 23.0152H607.977C608.059 20.4236 608.836 17.9018 610.228 15.7139H612.941C612.003 18.0358 611.501 20.5111 611.462 23.0152V23.0152ZM612.432 23.9852H617.326C617.338 26.4337 617.561 28.8765 617.994 31.2865H613.998C613.004 28.9784 612.472 26.4979 612.432 23.9852V23.9852ZM618.191 32.2605C618.35 32.9768 618.526 33.6483 618.719 34.267C619.172 35.7131 619.725 36.8852 620.355 37.7033C618.456 37.1077 616.763 35.7416 615.429 33.845C615.072 33.3365 614.749 32.8054 614.46 32.2551L618.191 32.2605ZM619.643 33.9794C619.476 33.4462 619.322 32.871 619.183 32.2605H625.815C625.68 32.871 625.522 33.4462 625.355 33.9794C624.573 36.4864 623.558 38.037 622.506 38.037C621.455 38.037 620.429 36.481 619.643 33.9739V33.9794ZM626.279 34.267C626.472 33.6483 626.65 32.9768 626.807 32.2605H630.534C630.246 32.8089 629.924 33.3382 629.569 33.845C628.235 35.7443 626.537 37.1077 624.643 37.7033C625.273 36.8798 625.827 35.7077 626.279 34.2615V34.267ZM627.004 31.2919C627.436 28.8819 627.661 26.4391 627.674 23.9906H632.567C632.527 26.5032 631.995 28.9836 631.002 31.2919H627.004ZM633.536 23.9906H637.022C636.94 26.5822 636.162 29.104 634.77 31.2919H632.057C632.996 28.9683 633.497 26.4911 633.536 23.9852V23.9906ZM633.536 23.0206C633.495 20.5162 632.992 18.0409 632.052 15.7193H634.765C636.157 17.9071 636.934 20.429 637.017 23.0206H633.536ZM632.775 13.2245C633.25 13.7006 633.692 14.2087 634.097 14.7453H631.616C631.255 13.9994 630.835 13.2835 630.36 12.6045C629.694 11.6442 628.897 10.782 627.991 10.0432C629.781 10.776 631.407 11.8574 632.775 13.2245ZM612.223 13.2245C613.591 11.8569 615.217 10.7755 617.007 10.0432C616.101 10.782 615.304 11.6442 614.638 12.6045C614.163 13.2835 613.743 13.9994 613.382 14.7453H610.901C611.306 14.2087 611.748 13.7006 612.223 13.2245V13.2245ZM612.223 33.7759C611.748 33.2998 611.306 32.7917 610.901 32.2551H613.382C613.743 33.001 614.163 33.7168 614.638 34.3958C615.304 35.3558 616.101 36.2175 617.007 36.9558C615.217 36.224 613.591 35.143 612.223 33.7759V33.7759ZM632.775 33.7759C631.407 35.143 629.781 36.224 627.991 36.9558C628.897 36.2175 629.694 35.3558 630.36 34.3958C630.835 33.7168 631.255 33.001 631.616 32.2551H634.097C633.692 32.7917 633.25 33.2998 632.775 33.7759V33.7759Z" fill="white"/>
</g>
<path d="M46 1L46 47" stroke="white"/>
<path d="M0.5 1L46 46.5" stroke="white"/>
<path d="M46 1L0.499999 46.5" stroke="white"/>
<path d="M686 47L0 47" stroke="white"/>
<defs>
<clipPath id="clip0_502_1748">
<rect width="31" height="31" fill="white" transform="translate(607 8)"/>
</clipPath>
</defs>
</svg>

<svg viewBox="0 0 688 321" fill="none" xmlns="http://www.w3.org/2000/svg"><path stroke="#fff" d="M.5.5h686v319H.5z"/><mask id="a" style="mask-type:alpha" maskUnits="userSpaceOnUse" x="4" y="197" width="683" height="123"><path fill="#fff" stroke="#3D3D4C" d="M4.5 197.5h682v122H4.5z"/></mask><g mask="url(#a)" stroke="#fff"><path stroke-width=".149" d="M210.075 275.075h583.851v45.85H210.075z"/><path d="M3.758 290H687m0 15H3.758M68 275H3.5M53 261H4m16.5 58.5l25-44.5H68l-25 44.5M-8 290l24.5-44H39l-24.5 44"/><path d="M3 311l27.5-50H53l-24.5 44M154 319.5l25-44.5h22.5l-25 44.5m-109 0l25-44.5H115l-25 44.5m503 0l25-44.5h22.5l-25 44.5m22.5 0l25-44.5h22.5l-25 44.5"/><path d="M623 305.5l25-44.5h22.5l-25 44.5m8.5-15l25-44.5h22.5l-25 44.5m-37-15.5H665m-3-14h25.5M662 275h25.5M112 319.5l25-44.5h22.5l-25 44.5"/></g><path d="M670.272 24.327a55.908 55.908 0 004.135-5.335 26.155 26.155 0 002.104-3.665c.492-1.096.78-2.04.784-2.872a2.526 2.526 0 00-.107-.805 1.728 1.728 0 00-.419-.694 1.693 1.693 0 00-.687-.42 2.46 2.46 0 00-.794-.123c-.819 0-1.751.296-2.83.796-2.403 1.123-5.542 3.353-8.873 6.33a55.466 55.466 0 00-5.257-4.194 25.518 25.518 0 00-3.611-2.136c-1.079-.5-2.013-.79-2.831-.796a2.4 2.4 0 00-.792.122 1.684 1.684 0 00-.681.423 1.72 1.72 0 00-.415.692c-.082.26-.122.532-.119.805 0 .831.292 1.776.784 2.872 1.107 2.439 3.304 5.622 6.238 9.004a55.988 55.988 0 00-4.134 5.334 26.178 26.178 0 00-2.104 3.665c-.492 1.096-.78 2.041-.784 2.872a2.56 2.56 0 00.119.806c.083.26.225.496.416.69.19.193.423.338.68.422.256.083.523.124.792.12.819 0 1.752-.296 2.831-.796 2.402-1.123 5.541-3.352 8.872-6.33a54.806 54.806 0 005.257 4.194 25.37 25.37 0 003.613 2.136c1.079.5 2.011.792 2.83.796a2.45 2.45 0 00.793-.12 1.714 1.714 0 001.095-1.112 2.53 2.53 0 00.119-.806c0-.83-.292-1.776-.784-2.872-1.102-2.438-3.299-5.622-6.24-9.003zm-.733-9.947c1.09-.77 2.24-1.449 3.439-2.029.986-.464 1.805-.687 2.315-.682.135-.003.27.016.399.056a.479.479 0 01.321.326c.04.13.059.268.055.404 0 .517-.216 1.35-.672 2.35-1.006 2.232-3.113 5.306-5.949 8.588a82.172 82.172 0 00-2.411-2.56 70.941 70.941 0 00-2.521-2.445 53.44 53.44 0 015.029-4.008h-.005zm-3.378 12.562a77.04 77.04 0 01-2.577 2.493 72.942 72.942 0 01-2.576-2.493 76.493 76.493 0 01-2.453-2.615 75.419 75.419 0 015.036-5.109 75.773 75.773 0 015.032 5.11 73.781 73.781 0 01-2.457 2.614h-.005zm-12.374-8.658a24.784 24.784 0 01-2.003-3.483c-.457-1-.676-1.833-.672-2.35a1.258 1.258 0 01.055-.404.481.481 0 01.321-.327c.129-.04.264-.058.398-.055.511 0 1.33.218 2.316.682 2.199 1.02 5.229 3.159 8.463 6.036-.83.772-1.679 1.59-2.524 2.447a74.374 74.374 0 00-2.41 2.56 54.073 54.073 0 01-3.944-5.106zm3.847 15.99a24.455 24.455 0 01-3.432 2.033c-.986.464-1.798.687-2.316.683a1.257 1.257 0 01-.398-.057.492.492 0 01-.202-.12.51.51 0 01-.119-.205 1.266 1.266 0 01-.055-.406c0-.517.215-1.347.672-2.35 1.006-2.23 3.112-5.304 5.948-8.586a82.342 82.342 0 002.41 2.56 80.576 80.576 0 002.522 2.447 53.866 53.866 0 01-5.03 4.002zm18.379 2.334a.522.522 0 01-.119.205.492.492 0 01-.202.12c-.129.04-.264.06-.399.057-.51 0-1.329-.22-2.315-.683-2.2-1.02-5.229-3.158-8.463-6.036.83-.773 1.679-1.59 2.523-2.446l-.436-.442.436.442a76.431 76.431 0 002.411-2.56 54.461 54.461 0 013.944 5.103 24.786 24.786 0 011.997 3.484c.457 1.003.677 1.834.672 2.35.006.137-.011.274-.049.406z" fill="#fff"/><path d="M669.546 20.802c.492.001.974-.146 1.385-.423.41-.276.73-.67.92-1.132a2.56 2.56 0 00-.535-2.756 2.458 2.458 0 00-2.715-.55 2.5 2.5 0 00-1.118.93 2.548 2.548 0 00.306 3.189c.466.473 1.097.74 1.757.742zm-12.027 7.165a2.46 2.46 0 00-1.378.428 2.515 2.515 0 00-.911 1.132 2.55 2.55 0 00.543 2.743 2.45 2.45 0 002.705.543c.453-.19.841-.513 1.113-.928a2.542 2.542 0 00-.314-3.18 2.47 2.47 0 00-1.758-.738zm12.027 0c-.49 0-.97.15-1.377.428a2.51 2.51 0 00-.912 1.132 2.55 2.55 0 00.543 2.743 2.45 2.45 0 002.705.543c.453-.19.841-.513 1.113-.928a2.542 2.542 0 00-.313-3.18 2.473 2.473 0 00-1.759-.738zm-12.025-12.204c-.492 0-.974.148-1.383.425-.41.278-.729.673-.917 1.134a2.558 2.558 0 00.54 2.754 2.457 2.457 0 002.713.548 2.501 2.501 0 001.118-.931 2.557 2.557 0 00-.31-3.19 2.472 2.472 0 00-1.761-.74z" fill="#fff"/><g clip-path="url(#clip0_502_1748)"><path d="M633.46 12.54a15.503 15.503 0 104.539 10.96 15.464 15.464 0 00-4.539-10.96zm-25.483 11.445h3.485c.041 2.505.544 4.98 1.484 7.302h-2.713a14.465 14.465 0 01-2.256-7.302zm19.697-.97a42.666 42.666 0 00-.67-7.301h3.998a19.252 19.252 0 011.565 7.301h-4.893zm-9.38 0c.01-2.449.237-4.892.678-7.301h7.043c.442 2.409.669 4.852.678 7.301h-8.399zm8.411.97a41.296 41.296 0 01-.678 7.302h-7.049a41.298 41.298 0 01-.678-7.302h8.405zm.101-9.24a24.848 24.848 0 00-.528-2.006c-.452-1.446-1.007-2.62-1.636-3.436 1.892.596 3.593 1.961 4.927 3.852.355.507.677 1.037.965 1.585l-3.728.005zm-1.452-1.719c.167.534.32 1.109.46 1.72h-6.631a20.79 20.79 0 01.46-1.72c.786-2.507 1.797-4.057 2.857-4.057 1.059 0 2.073 1.55 2.855 4.057h-.001zm-6.635-.287c-.189.618-.369 1.29-.528 2.006h-3.731c.289-.55.612-1.081.969-1.59 1.338-1.89 3.032-3.256 4.926-3.852-.63.816-1.183 1.99-1.636 3.436zm-.725 2.975a42.463 42.463 0 00-.668 7.301h-4.894c.04-2.512.572-4.993 1.566-7.301h3.996zm-6.532 7.301h-3.485a14.452 14.452 0 012.251-7.301h2.713a20.34 20.34 0 00-1.479 7.301zm.97.97h4.894c.012 2.449.235 4.892.668 7.302h-3.996a19.233 19.233 0 01-1.566-7.302zm5.759 8.276a24.9 24.9 0 00.528 2.006c.453 1.446 1.006 2.618 1.636 3.436-1.899-.595-3.592-1.961-4.926-3.858-.357-.508-.68-1.04-.969-1.59l3.731.005zm1.452 1.718a22.431 22.431 0 01-.46-1.718h6.632a20.73 20.73 0 01-.46 1.718c-.782 2.507-1.797 4.058-2.849 4.058-1.051 0-2.077-1.556-2.863-4.063v.005zm6.636.288c.193-.619.371-1.29.528-2.007h3.727c-.288.549-.61 1.078-.965 1.585-1.334 1.9-3.032 3.263-4.926 3.858.63-.823 1.184-1.995 1.636-3.442v.006zm.725-2.975c.432-2.41.657-4.853.67-7.301h4.893a19.252 19.252 0 01-1.565 7.3h-3.998zm6.532-7.301h3.486a14.453 14.453 0 01-2.252 7.3h-2.713a20.34 20.34 0 001.479-7.306v.006zm0-.97a20.342 20.342 0 00-1.484-7.302h2.713a14.463 14.463 0 012.252 7.302h-3.481zm-.761-9.796c.475.476.917.984 1.322 1.52h-2.481a15.56 15.56 0 00-1.256-2.14 12.485 12.485 0 00-2.369-2.562 14.585 14.585 0 014.784 3.182zm-20.552 0a14.569 14.569 0 014.784-3.182 12.485 12.485 0 00-2.369 2.562 15.56 15.56 0 00-1.256 2.14h-2.481a14.69 14.69 0 011.322-1.52zm0 20.55a14.646 14.646 0 01-1.322-1.52h2.481a15.56 15.56 0 001.256 2.14c.666.96 1.463 1.822 2.369 2.56a14.565 14.565 0 01-4.784-3.18zm20.552 0a14.565 14.565 0 01-4.784 3.18 12.44 12.44 0 002.369-2.56 15.56 15.56 0 001.256-2.14h2.481a14.646 14.646 0 01-1.322 1.52z" fill="#fff"/></g><path d="M46 1v46M.5 1L46 46.5M46 1L.5 46.5M686 47H0" stroke="#fff"/><defs><clipPath id="clip0_502_1748"><path fill="#fff" transform="translate(607 8)" d="M0 0h31v31H0z"/></clipPath></defs></svg>
